X: 11912
T: Emmett's Hedgehog
R: jig
M: 6/8
K: Adorian
|:A2e edB|~A3 AGE|~A3 AGE|GBG DEG|
A2e edB|~A3 AGE|GBG DEG|1 BAG A2 (3E/F/G/:|2 BAG AB/c/d||
|:e2a ged|c2 B2 AG|~B3 BAB|g2f edB|
e2a ged|c2 B2 AG|Bge dBG|1 EFG AB/c/d:|2 EFG A2 (3E/F/G/||

